packages/rn-bitcoin-icons/svg/filled/unmixed.svg

<svg width="24" height="24" viewBox="0 0 24 24" fill="none" xmlns="http://www.w3.org/2000/svg">
<path fill-rule="evenodd" clip-rule="evenodd" d="M15.0792 2.46197C15.3763 2.17342 15.8512 2.18042 16.1397 2.47759L19.5381 5.97758C19.8207 6.26858 19.8207 6.7315 19.5381 7.0225L16.1397 10.5225C15.8512 10.8197 15.3763 10.8267 15.0792 10.5381C14.782 10.2496 14.775 9.77474 15.0635 9.47757L17.2264 7.25003L5 7.25003C4.58579 7.25003 4.25 6.91424 4.25 6.50003C4.25 6.08582 4.58579 5.75003 5 5.75003L17.2264 5.75003L15.0635 3.52252C14.775 3.22534 14.782 2.75052 15.0792 2.46197ZM15.0792 13.4617C15.3763 13.1732 15.8512 13.1802 16.1397 13.4773L19.5381 16.9773C19.8207 17.2683 19.8207 17.7312 19.5381 18.0223L16.1397 21.5222C15.8512 21.8194 15.3763 21.8264 15.0792 21.5379C14.782 21.2493 14.775 20.7745 15.0635 20.4773L17.2262 18.25L5 18.25C4.58579 18.25 4.25 17.9142 4.25 17.5C4.25 17.0858 4.58579 16.75 5 16.75L17.2266 16.75L15.0635 14.5223C14.775 14.2251 14.782 13.7503 15.0792 13.4617Z" fill="black"/>
</svg>

<svg xmlns="http://www.w3.org/2000/svg" viewBox="0 0 24 24" fill="currentColor">
  <path fill-rule="evenodd" d="M15.08 2.462a.75.75 0 011.06.016l3.398 3.5a.75.75 0 010 1.045l-3.398 3.5a.75.75 0 11-1.077-1.045l2.163-2.228H5a.75.75 0 010-1.5h12.226l-2.162-2.227a.75.75 0 01.015-1.061zm0 11a.75.75 0 011.06.015l3.398 3.5a.75.75 0 010 1.045l-3.398 3.5a.75.75 0 11-1.077-1.045l2.163-2.227H5a.75.75 0 010-1.5h12.227l-2.164-2.228a.75.75 0 01.016-1.06z" clip-rule="evenodd"/>
</svg>
